src/app/assets/images/logo.svg

<svg  viewBox="0 0 34 40" fill="none" xmlns="http://www.w3.org/2000/svg" role="img" aria-labelledby="logo-title">
<title id="logo-title">Healthy Recipes Finder</title>
<path fill-rule="evenodd" clip-rule="evenodd" d="M8.34357 7.21971C8.28858 8.73817 8.57532 11.4266 12.597 14.6049C15.9864 17.2839 18.9818 20.254 19.8785 24.0305C20.6747 27.3822 20.1697 37.0743 13.9865 33.5778C10.9636 31.8692 6.82903 28.6325 7.08435 23.8162C7.08435 23.8162 7.21285 22.5788 6.6315 22.5294C6.05184 22.4801 4.65572 28.9624 10.619 34.0969C16.5806 39.2314 26.1134 38.2954 29.9426 35.2748C29.9426 35.2748 30.703 34.6053 30.9398 34.7013C31.0458 34.7428 30.8607 35.4218 29.9005 36.1333C11.4113 49.8399 -12.1949 24.0327 7.33911 6.681C8.76218 5.4173 8.38958 5.94816 8.34357 7.21971Z" fill="#163A34"/>
<path fill-rule="evenodd" clip-rule="evenodd" d="M22.6727 1.43301C22.8966 3.15517 22.8579 6.22014 18.6308 10.0427C17.5753 10.9972 16.5619 11.9786 15.6421 13.001C15.5703 13.0953 14.8694 14.0751 15.8997 15.2535C16.8733 16.3685 23.7092 22.6039 21.9073 28.3815C21.404 29.997 22.2249 29.2137 22.6896 28.7344C24.7753 26.5824 26.3875 23.7183 25.8701 20.2089C25.8701 20.2089 25.5941 18.8111 26.2472 18.723C26.901 18.6372 29.1753 25.9225 22.9544 32.0676C22.2973 32.7163 21.5869 33.2898 20.8389 33.7932C20.8389 33.7932 20.5482 34.1428 20.8417 34.42C20.904 34.4789 21.354 34.6158 21.9281 34.3582C37.8259 27.2092 36.2138 10.4461 23.7552 0.768057C22.0055 -0.590477 22.4853 -0.00800906 22.6727 1.43301Z" fill="#FE9F6B"/>
</svg>

<svg xmlns="http://www.w3.org/2000/svg" width="260" height="40" fill="none" viewBox="0 0 260 40"><path fill="#163A34" fill-rule="evenodd" d="M8.344 7.22c-.055 1.518.231 4.206 4.253 7.385 3.39 2.679 6.385 5.649 7.281 9.425.797 3.352.292 13.044-5.892 9.548-3.023-1.709-7.157-4.946-6.902-9.762 0 0 .129-1.237-.453-1.287-.58-.05-1.975 6.433 3.988 11.568 5.962 5.134 15.494 4.198 19.324 1.178 0 0 .76-.67.997-.574.106.042-.08.72-1.04 1.432C11.412 49.84-12.194 24.033 7.34 6.681c1.422-1.264 1.05-.733 1.004.539Z" clip-rule="evenodd"/><path fill="#FE9F6B" fill-rule="evenodd" d="M22.673 1.433c.224 1.722.185 4.787-4.042 8.61-1.055.954-2.069 1.936-2.989 2.958-.072.094-.772 1.074.258 2.253.973 1.115 7.81 7.35 6.008 13.127-.504 1.616.317.833.782.353 2.086-2.152 3.698-5.016 3.18-8.525 0 0-.276-1.398.377-1.486.654-.086 2.928 7.2-3.292 13.345a14.642 14.642 0 0 1-2.116 1.725s-.29.35.003.627c.062.059.512.196 1.086-.062C37.826 27.21 36.214 10.446 23.755.768c-1.75-1.358-1.27-.776-1.082.665Z" clip-rule="evenodd"/><path fill="#163A34" d="M45.296 26c-.294 0-.44-.113-.44-.34v-.06c0-.133.126-.34.38-.62.253-.293.38-.593.38-.9V13.72c0-.307-.127-.6-.38-.88-.254-.293-.38-.507-.38-.64v-.08c0-.213.146-.32.44-.32h3.74c.306 0 .46.107.46.32v.08c0 .133-.14.347-.42.64-.28.28-.42.573-.42.88v4.44h6.12v-4.44c0-.307-.127-.6-.38-.88-.254-.293-.38-.507-.38-.64v-.08c0-.213.146-.32.44-.32h3.74c.306 0 .46.107.46.32v.08c0 .133-.147.347-.44.64-.28.28-.42.573-.42.88v10.36c0 .307.14.607.42.9.293.28.44.487.44.62v.06c0 .227-.154.34-.46.34h-3.74c-.294 0-.44-.113-.44-.34v-.06c0-.133.126-.34.38-.62.253-.293.38-.593.38-.9v-4.6h-6.12l-.02 4.6c0 .307.14.607.42.9.293.28.44.487.44.62v.06c0 .227-.154.34-.46.34h-3.74Zm22.613-3.04c.12-.16.267-.213.44-.16.173.053.253.18.24.38-.067.693-.467 1.373-1.2 2.04-.733.653-1.687.98-2.86.98-1.413 0-2.573-.467-3.48-1.4-.907-.933-1.36-2.16-1.36-3.68 0-1.427.473-2.6 1.42-3.52.947-.933 2.087-1.4 3.42-1.4 1.213 0 2.147.287 2.8.86s.98 1.233.98 1.98c0 .613-.293 1.053-.88 1.32l-4.44 2.02c.547 1.16 1.427 1.74 2.64 1.74.507 0 .96-.107 1.36-.32.413-.227.72-.507.92-.84Zm-3.74-5.88c-.52 0-.933.253-1.24.76-.307.493-.46 1.127-.46 1.9 0 .653.067 1.227.2 1.72l2.58-1.3c.347-.173.52-.487.52-.94 0-.453-.147-.92-.44-1.4-.293-.493-.68-.74-1.16-.74ZM78.653 24c.04.307.114.553.22.74.12.187.24.307.36.36.12.04.227.093.32.16.094.067.14.16.14.28 0 .387-.64.58-1.92.58-.586 0-1.02-.073-1.3-.22-.266-.16-.426-.447-.48-.86-.52.773-1.406 1.16-2.66 1.16-1.12 0-2.026-.26-2.72-.78-.693-.52-1.04-1.267-1.04-2.24-.013-.96.327-1.707 1.02-2.24.694-.533 1.56-.8 2.6-.8.88 0 1.607.2 2.18.6l-.02-.24c-.133-1.267-.32-2.16-.56-2.68-.24-.52-.646-.78-1.22-.78-.36 0-.653.133-.88.4-.226.267-.386.56-.48.88-.093.32-.246.613-.46.88-.213.267-.486.4-.82.4-.36 0-.653-.1-.88-.3-.213-.213-.32-.487-.32-.82 0-.693.367-1.247 1.1-1.66.747-.413 1.66-.62 2.74-.62 1.294 0 2.354.367 3.18 1.1.827.733 1.314 1.733 1.46 3l.44 3.7Zm-4.44 1.32c.44 0 .794-.18 1.06-.54.267-.373.387-.793.36-1.26l-.06-.7c-.053-.573-.226-1.013-.52-1.32a1.374 1.374 0 0 0-1.06-.46c-.426 0-.78.153-1.06.46-.266.307-.4.713-.4 1.22 0 .72.154 1.333.46 1.84.32.507.727.76 1.22.76Zm6.483.68c-.307 0-.46-.113-.46-.34v-.08c0-.133.127-.34.38-.62.267-.28.4-.573.4-.88v-9.84c0-.347-.133-.66-.4-.94-.253-.28-.38-.473-.38-.58v-.08c0-.16.133-.293.4-.4l2.52-1.24c.267-.107.467-.12.6-.04.147.08.22.213.22.4v12.72c0 .307.14.6.42.88.293.28.44.487.44.62v.08c0 .227-.153.34-.46.34h-3.68Zm9.165.2c-.933 0-1.673-.293-2.22-.88-.533-.6-.8-1.46-.8-2.58v-5.18h-.94c-.266 0-.4-.133-.4-.4v-.34c0-.28.134-.42.4-.42h.5c.547 0 1.007-.18 1.38-.54.387-.36.634-.84.74-1.44.067-.32.22-.48.46-.48h.4c.294 0 .44.16.44.48l.02 1.98h2.3c.107 0 .2.04.28.12.08.08.12.18.12.3v.34c0 .12-.04.22-.12.3a.424.424 0 0 1-.28.1h-2.3v5.22c0 .387.094.7.28.94.2.227.447.34.74.34.694 0 1.147-.3 1.36-.9.12-.173.267-.24.44-.2.187.027.28.133.28.32 0 .773-.28 1.453-.84 2.04-.546.587-1.293.88-2.24.88Zm14.034-2.16c.027.32.154.62.38.9.227.28.34.493.34.64v.08c0 .227-.146.34-.44.34h-3.48c-.293 0-.44-.113-.44-.34v-.08c0-.133.12-.34.36-.62.254-.28.374-.58.36-.9l-.2-3.84c-.093-1.92-.673-2.88-1.74-2.88-.533 0-.953.2-1.26.6-.293.4-.44.933-.44 1.6v4.54c0 .307.14.6.42.88.294.28.44.487.44.62v.08c0 .227-.16.34-.48.34h-3.7c-.306 0-.46-.113-.46-.34v-.08c0-.133.14-.34.42-.62.28-.28.42-.573.42-.88v-9.96c0-.32-.153-.607-.46-.86-.293-.253-.44-.447-.44-.58v-.06c0-.2.134-.367.4-.5l2.64-1.16c.227-.093.4-.107.52-.04.134.067.2.2.2.4l-.02 6c.627-.747 1.5-1.12 2.62-1.12 1.014 0 1.874.333 2.58 1 .707.653 1.107 1.687 1.2 3.1l.26 3.74Zm11.207-7.64c.266 0 .4.107.4.32v.1c0 .173-.14.407-.42.7-.267.293-.467.58-.6.86l-3.78 8.22c-.174.387-.32.7-.44.94s-.307.553-.56.94c-.24.4-.48.713-.72.94-.24.227-.54.427-.9.6s-.734.26-1.12.26c-.854 0-1.56-.22-2.12-.66-.547-.44-.82-.933-.82-1.48 0-.36.106-.653.32-.88.213-.213.506-.32.88-.32.373 0 .666.12.88.36.213.253.353.533.42.84.066.307.166.58.3.82.146.253.333.38.56.38.613 0 1.3-.933 2.06-2.8l-3.98-8.16a3.175 3.175 0 0 0-.66-.86c-.28-.293-.42-.527-.42-.7v-.1c0-.213.14-.32.42-.32h3.74c.253 0 .38.113.38.34v.08c0 .12-.06.26-.18.42-.12.147-.2.287-.24.42-.04.133 0 .387.12.76l2.34 5.42 2.16-5.14c.133-.453.133-.767 0-.94a2.503 2.503 0 0 0-.54-.5c-.227-.173-.34-.32-.34-.44v-.08c0-.227.14-.34.42-.34h2.44Zm16.249 7.68c.174.267.38.5.62.7.254.187.454.34.6.46.147.107.22.227.22.36v.06c0 .227-.153.34-.46.34h-4.18c-.293 0-.44-.113-.44-.34v-.06c0-.12.074-.253.22-.4.16-.16.267-.3.32-.42.067-.133.034-.367-.1-.7l-2.1-3.48-2.2.04v3.44c0 .307.14.607.42.9.294.28.44.487.44.62v.06c0 .227-.16.34-.48.34h-3.76c-.293 0-.44-.113-.44-.34v-.06c0-.133.127-.34.38-.62.254-.293.38-.593.38-.9V13.72c0-.307-.126-.6-.38-.88-.253-.293-.38-.507-.38-.64v-.08c0-.213.147-.32.44-.32h4.94c1.854 0 3.32.38 4.4 1.14 1.094.76 1.647 1.873 1.66 3.34a3.89 3.89 0 0 1-.72 2.26c-.466.68-1.14 1.207-2.02 1.58l2.62 3.96Zm-6.38-4.66h.86c.76 0 1.367-.233 1.82-.7.467-.48.7-1.18.7-2.1 0-1.093-.32-1.967-.96-2.62-.626-.653-1.353-.98-2.18-.98h-.68c-.453 0-.68.3-.68.9v4.16c0 .48.087.827.26 1.04.187.2.474.3.86.3Zm15.985 3.54c.12-.16.267-.213.44-.16.173.053.253.18.24.38-.067.693-.467 1.373-1.2 2.04-.733.653-1.687.98-2.86.98-1.413 0-2.573-.467-3.48-1.4-.907-.933-1.36-2.16-1.36-3.68 0-1.427.473-2.6 1.42-3.52.947-.933 2.087-1.4 3.42-1.4 1.213 0 2.147.287 2.8.86s.98 1.233.98 1.98c0 .613-.293 1.053-.88 1.32l-4.44 2.02c.547 1.16 1.427 1.74 2.64 1.74.507 0 .96-.107 1.36-.32.413-.227.72-.507.92-.84Zm-3.74-5.88c-.52 0-.933.253-1.24.76-.307.493-.46 1.127-.46 1.9 0 .653.067 1.227.2 1.72l2.58-1.3c.347-.173.52-.487.52-.94 0-.453-.147-.92-.44-1.4-.293-.493-.68-.74-1.16-.74Zm10.404 9.12c-1.48 0-2.713-.493-3.7-1.48-.973-.987-1.46-2.167-1.46-3.54 0-1.493.487-2.693 1.46-3.6.987-.907 2.18-1.367 3.58-1.38 1.147-.013 2.12.253 2.92.8.813.547 1.22 1.213 1.22 2 0 .293-.1.54-.3.74-.2.187-.513.273-.94.26-.32-.013-.6-.127-.84-.34-.24-.213-.44-.46-.6-.74-.147-.28-.3-.56-.46-.84-.16-.28-.36-.513-.6-.7-.24-.2-.52-.3-.84-.3-.56 0-1.013.253-1.36.76-.333.507-.5 1.14-.5 1.9 0 1.333.307 2.4.92 3.2.627.8 1.453 1.2 2.48 1.2 1.053 0 1.853-.467 2.4-1.4a.412.412 0 0 1 .28-.18c.12-.027.22 0 .3.08.093.067.133.167.12.3-.067.893-.46 1.66-1.18 2.3-.707.64-1.673.96-2.9.96Zm8.857-11.7c-.346.32-.813.48-1.4.48-.586 0-1.066-.16-1.44-.48-.36-.333-.54-.76-.54-1.28 0-.507.18-.92.54-1.24.374-.333.854-.5 1.44-.5.587 0 1.054.167 1.4.5.36.32.54.733.54 1.24 0 .52-.18.947-.54 1.28Zm-3.22 11.5c-.293 0-.44-.113-.44-.34v-.08c0-.133.127-.34.38-.62.254-.28.38-.58.38-.9v-4.52c0-.333-.126-.647-.38-.94-.253-.293-.38-.493-.38-.6v-.06c0-.133.14-.273.42-.42l2.5-1.24c.254-.107.454-.113.6-.02.147.08.22.22.22.42v7.38c0 .32.14.62.42.9.28.28.42.487.42.62v.08c0 .227-.153.34-.46.34h-3.68Zm11.182-9.8c1.253 0 2.347.433 3.28 1.3.933.867 1.4 2.047 1.4 3.54 0 1.507-.46 2.747-1.38 3.72-.907.96-2 1.44-3.28 1.44-.933 0-1.713-.26-2.34-.78v2.98c0 .32.14.62.42.9.28.28.42.487.42.62V30c0 .227-.153.34-.46.34h-3.62c-.307 0-.46-.113-.46-.34v-.08c0-.133.127-.34.38-.62.267-.28.4-.58.4-.9v-9c0-.293-.153-.56-.46-.8-.307-.253-.46-.453-.46-.6v-.1c0-.187.133-.347.4-.48l2.24-1.1c.507-.253.76-.133.76.36l-.02.84c.56-.88 1.487-1.32 2.78-1.32Zm-.28 9.14c.64 0 1.133-.267 1.48-.8.36-.533.54-1.3.54-2.3 0-1.36-.22-2.56-.66-3.6-.44-1.053-1.033-1.58-1.78-1.58a1.48 1.48 0 0 0-1.08.46c-.307.293-.487.68-.54 1.16v3.82c0 .773.207 1.44.62 2 .413.56.887.84 1.42.84Zm14.258-2.38c.12-.16.267-.213.44-.16.173.053.253.18.24.38-.067.693-.467 1.373-1.2 2.04-.733.653-1.687.98-2.86.98-1.413 0-2.573-.467-3.48-1.4-.907-.933-1.36-2.16-1.36-3.68 0-1.427.473-2.6 1.42-3.52.947-.933 2.087-1.4 3.42-1.4 1.213 0 2.147.287 2.8.86s.98 1.233.98 1.98c0 .613-.293 1.053-.88 1.32l-4.44 2.02c.547 1.16 1.427 1.74 2.64 1.74.507 0 .96-.107 1.36-.32.413-.227.72-.507.92-.84Zm-3.74-5.88c-.52 0-.933.253-1.24.76-.307.493-.46 1.127-.46 1.9 0 .653.067 1.227.2 1.72l2.58-1.3c.347-.173.52-.487.52-.94 0-.453-.147-.92-.44-1.4-.293-.493-.68-.74-1.16-.74ZM185.003 26c-.307 0-.46-.113-.46-.34v-.06c0-.133.126-.34.38-.62.266-.293.4-.593.4-.9V13.72c0-.32-.134-.62-.4-.9-.254-.28-.38-.487-.38-.62v-.08c0-.213.146-.32.44-.32h9.06c.36 0 .566.193.62.58l.48 2.34c.066.347-.074.52-.42.52h-.1c-.2 0-.42-.113-.66-.34a6.6 6.6 0 0 1-.62-.76c-.174-.28-.4-.533-.68-.76-.28-.24-.567-.36-.86-.36h-2.64c-.52 0-.78.28-.78.84v4.88h2.68c.186 0 .36-.073.52-.22.173-.16.306-.333.4-.52.093-.187.2-.353.32-.5.12-.16.24-.24.36-.24h.16c.226 0 .34.147.34.44v3.22c0 .28-.114.42-.34.42h-.16c-.12 0-.24-.073-.36-.22a2.987 2.987 0 0 1-.32-.48 1.687 1.687 0 0 0-.4-.48.758.758 0 0 0-.52-.22h-2.68v4.14c0 .307.14.607.42.9.293.28.44.487.44.62v.06c0 .227-.16.34-.48.34h-3.76Zm14.521-11.5c-.346.32-.813.48-1.4.48-.586 0-1.066-.16-1.44-.48-.36-.333-.54-.76-.54-1.28 0-.507.18-.92.54-1.24.374-.333.854-.5 1.44-.5.587 0 1.054.167 1.4.5.36.32.54.733.54 1.24 0 .52-.18.947-.54 1.28Zm-3.22 11.5c-.293 0-.44-.113-.44-.34v-.08c0-.133.127-.34.38-.62.254-.28.38-.58.38-.9v-4.52c0-.333-.126-.647-.38-.94-.253-.293-.38-.493-.38-.6v-.06c0-.133.14-.273.42-.42l2.5-1.24c.254-.107.454-.113.6-.02.147.08.22.22.22.42v7.38c0 .32.14.62.42.9.28.28.42.487.42.62v.08c0 .227-.153.34-.46.34h-3.68Zm15.662-1.94c.027.32.153.62.38.9s.34.493.34.64v.08c0 .227-.153.34-.46.34h-3.46c-.307 0-.46-.113-.46-.34v-.08c0-.133.12-.34.36-.62.253-.28.373-.587.36-.92l-.2-3.7c-.093-2.013-.673-3.02-1.74-3.02-.533 0-.953.2-1.26.6-.293.4-.44.933-.44 1.6v4.54c0 .32.14.62.42.9.293.28.44.487.44.62v.08c0 .227-.153.34-.46.34h-3.72c-.307 0-.46-.113-.46-.34v-.08c0-.133.14-.34.42-.62.293-.28.44-.58.44-.9v-4.66a.95.95 0 0 0-.16-.54.833.833 0 0 0-.34-.34 2.245 2.245 0 0 1-.34-.28.49.49 0 0 1-.14-.32v-.08c0-.147.133-.287.4-.42l2.38-1.16c.227-.107.393-.113.5-.02.12.08.18.227.18.44v1.12c.573-1.08 1.56-1.62 2.96-1.62 1.013 0 1.873.34 2.58 1.02.72.68 1.133 1.76 1.24 3.24l.24 3.6Zm11.431.02c0 .307.133.607.4.9.267.28.4.487.4.62v.06c0 .227-.133.34-.4.34h-2.48c-.307 0-.46-.147-.46-.44l-.04-.44c-.613.72-1.48 1.08-2.6 1.08-1.293 0-2.4-.447-3.32-1.34-.92-.907-1.38-2.133-1.38-3.68 0-1.453.46-2.647 1.38-3.58.92-.933 2.033-1.4 3.34-1.4.933 0 1.713.26 2.34.78v-3.2a.895.895 0 0 0-.26-.66 3.05 3.05 0 0 0-.5-.44c-.16-.12-.24-.247-.24-.38v-.06c0-.227.14-.38.42-.46l2.62-.8c.52-.173.78-.04.78.4v12.7Zm-4.52 1.26c.453 0 .847-.187 1.18-.56.347-.387.52-.913.52-1.58v-3.52c0-.653-.22-1.253-.66-1.8-.44-.547-.947-.82-1.52-.82-.613 0-1.1.26-1.46.78-.36.507-.547 1.227-.56 2.16-.027.76.047 1.54.22 2.34.187.8.48 1.5.88 2.1.413.587.88.887 1.4.9Zm14.52-2.38c.12-.16.267-.213.44-.16.174.053.254.18.24.38-.066.693-.466 1.373-1.2 2.04-.733.653-1.686.98-2.86.98-1.413 0-2.573-.467-3.48-1.4-.906-.933-1.36-2.16-1.36-3.68 0-1.427.474-2.6 1.42-3.52.947-.933 2.087-1.4 3.42-1.4 1.214 0 2.147.287 2.8.86.654.573.98 1.233.98 1.98 0 .613-.293 1.053-.88 1.32l-4.44 2.02c.547 1.16 1.427 1.74 2.64 1.74.507 0 .96-.107 1.36-.32.414-.227.72-.507.92-.84Zm-3.74-5.88c-.52 0-.933.253-1.24.76-.306.493-.46 1.127-.46 1.9 0 .653.067 1.227.2 1.72l2.58-1.3c.347-.173.52-.487.52-.94 0-.453-.146-.92-.44-1.4-.293-.493-.68-.74-1.16-.74Zm11.545-.88c.573 0 1.02.173 1.34.52.333.333.5.767.5 1.3 0 1.053-.427 1.58-1.28 1.58-.347 0-.62-.087-.82-.26a1.148 1.148 0 0 1-.34-.6 1.489 1.489 0 0 0-.24-.58c-.12-.187-.3-.28-.54-.28-.36 0-.627.213-.8.64-.174.427-.26.947-.26 1.56v4c0 .24.08.453.24.64.173.173.34.327.5.46.173.133.26.267.26.4v.08c0 .227-.147.34-.44.34h-3.7c-.307 0-.46-.113-.46-.34v-.08c0-.133.126-.34.38-.62.266-.28.4-.573.4-.88V19.4c0-.32-.154-.607-.46-.86-.307-.253-.46-.447-.46-.58v-.08c0-.187.14-.347.42-.48l2.4-1.12c.426-.2.64-.067.64.4v1.5c.453-1.32 1.36-1.98 2.72-1.98Z"/></svg>
